X:1
T:Fish upon a Hook
S:Norman Edmonds (1889-1976, Hillsville, Virginia)
M:C|
L:1/8
R:Reel
N:ADae tuning (fiddle).  Drone liberally throughout.
Q:"Quick"
D:Spring Fed Records SFR-DU 33002, Norman Edmonds - Train on the Island (1973).
F: https://www.slippery-hill.com/recording/fish-upon-hook
Z:Transcribed by Andrew Kuntz
K:D
(A2|d3)d f2a2|baee f2(A2|d3)B d2ef|gAff e2d2|
d3d f2a2|baee f2(A2|d3)B d2ef|gAff e2dd-||
|:d3e f2fe|d2[d2e2][d2f2]A2|d3B d2 ef|g2f2e2d2:|
P:Alternate 1st strain
d3e f2aa|b2e2f2A2|d3B d2 ef|g2f2e2d2|

